dist/svg/key-close-o.svg

<svg width="16" height="16" viewBox="0 0 16 16" fill="rgb(34, 34, 34)" xmlns="http://www.w3.org/2000/svg"><title>key-close-o</title><path d="M16 2V7C15.997 7.183 15.97 7.359 15.922 7.526L15.925 7.512L14.999 6.586V2C14.998 1.448 14.551 1.001 13.999 1H8.99899C8.44699 1.001 7.99999 1.448 7.99899 2V6.414L5.41299 9H3.99899V11H1.99899V12.414L0.998993 13.414V15H2.58499L7.58499 10L8.29199 10.707L2.99899 16H-0.00100708V13L0.998993 12V10H2.99899V8H4.99899L6.99899 6V2C6.99899 0.895 7.89399 0 8.99899 0H13.999C15.104 0 16 0.895 16 2ZM11.414 9H12.586L13.586 8H10.414L11.414 9ZM12.5 5C11.672 5 11 4.328 11 3.5C11 2.672 11.672 2 12.5 2C13.328 2 14 2.672 14 3.5C14 4.328 13.328 5 12.5 5ZM12.5 4C12.776 4 13 3.776 13 3.5C13 3.224 12.776 3 12.5 3C12.224 3 12 3.224 12 3.5C12 3.776 12.224 4 12.5 4ZM14.241 10.759L16 9L15 8L12 11L8.99999 8L7.99999 9L11 12L7.99999 15L8.99999 16L12 13L15 16L16 15L13 12L13.534 11.466L14.241 10.759Z" fill="rgb(34, 34, 34)" fill-opacity="1.00"/></svg>

<!-- Generated by Trend Micro Style Portal -->
<svg version="1.1" xmlns="http://www.w3.org/2000/svg" width="16" height="16" viewBox="0 0 16 16">
  <title>key-close-o</title>
  <path fill="rgb(34,34,34)" d="M16 2v5c-0.003 0.183-0.030 0.359-0.078 0.526l0.003-0.014-0.926-0.926v-4.586c-0.001-0.552-0.448-0.999-1-1h-5c-0.552 0.001-0.999 0.448-1 1v4.414l-2.586 2.586h-1.414v2h-2v1.414l-1 1v1.586h1.586l5-5 0.707 0.707-5.293 5.293h-3v-3l1-1v-2h2v-2h2l2-2v-4c0-1.105 0.895-2 2-2v0h5c1.105 0 2 0.895 2 2v0zM11.414 9h1.172l1-1h-3.172zM12.5 5c-0.828 0-1.5-0.672-1.5-1.5s0.672-1.5 1.5-1.5c0.828 0 1.5 0.672 1.5 1.5v0c0 0.828-0.672 1.5-1.5 1.5v0zM12.5 4c0.276 0 0.5-0.224 0.5-0.5s-0.224-0.5-0.5-0.5c-0.276 0-0.5 0.224-0.5 0.5v0c0 0.276 0.224 0.5 0.5 0.5h0zM14.241 10.759l1.759-1.759-1-1-3 3-3-3-1 1 3 3-3 3 1 1 3-3 3 3 1-1-3-3 0.534-0.534z"></path>
</svg>
